X:1
T:Cello Duet
T:Bourree
T:Johann Sebastian Bach / Ian Anderson arr. Mark Bücker
C:Vorlage
%%score [ 1 2 ]
L:1/8
Q:1/2=100
M:12/8
K:F
V:1 bass nm="Vc 1" snm="Vc."
V:2 bass nm="Vc 2" snm="Vc."
V:1
 D E2 F- | F2 E D2 ^C- C2 D E2 A,- | A,2 =B, ^C2 D- D2 =C _B,2 A,- | %3
 A,2 G, F,2 E,- E,2 F, G,2 A,- | A,2 G, F,E,D,- D, z D E2 F- | F2 E D2 A- A2 F A2 A,- | %6
 A,2 =B, ^C2 D- D2 =C _B,2 A,- | A,2 G, F,2 PF,- F,3 E,2 F,- | F,6 z2 D E2 F- | %9
 F2 E D2 ^C- C2 D E2 A,- | A,2 =B, ^C2 D- D2 =C _B,2 A,- | A,2 G, F,2 E,- E,2 F, G,2 A,- | %12
 A,2 G, F,E,D,- D, z D E2 F- | F2 E D2 A- A2 F A2 A,- | A,2 =B, ^C2 D- D2 =C _B,2 A,- | %15
 A,2 G, F,2 PF,- F,3 E,2 F,- | F,6 z2 z z2 A, | C2 z B,2 z A,2 z F2 z | D2 z C2 z B,2 z A,2 z | %19
 ^F,2 z G,2 z B,2 z A,2 z | G,6 z3 E,2 z | A,2 z F2 z D2 z A,2 z | B,2 z G2 z E2 z =B,2 z | %23
 C2 z A,2 z A,2 z ^G,2 z | A,6 z2 G E2 ^F- | F2 E D2 A, G2 z =F2 z | E2 z C2 z F2 z _E2 z | %27
 D2 z G2 z =E2 z =B,2 z | ^C2 z A,2 z G,2 z D2 z | _B,2 z C2 z A,2 z B,2 z | %30
 G,2 z A,2 z F,2 z D,2 ^C,- | C,2 D, E,2 F,- F,2 E, D,2 D,- | D,6 z6 | z12 | z6 z2 D,2 E,2 | %35
 F,2 E,2 D,2 ^C,2 E,2 F,2 | G,2 F,2 E,2 D,2 F,2 G,2 | A,2 G,2 F,2 E,2 G,2 A,2 | B,2 A,2 G,2 A,6 | %39
 D2 D DDD A,2 A,2 A,2 | ^C2 C CCC D2 z2 A,G, | F,2 F, F,F,F, B,,2 B,,2 D,2 | %42
 A,2 A,,2 E,2 D,2 z A,2 z | =B,2 z ^C2 z DD/D/D/D/ DDD | DD/D/D/D/ DDD D2 z z3 | A2 z z3 d2 |] %46
V:2
 z z2 D, | D,,2 z F,,2 z A,,2 z F,,2 z | E,,2 z F,,2 z D,,2 z E,,2 z | %3
 F,,2 z A,,2 z C,2 C,, E,,2 z | A,,2 E,, F,,2 z D,,2 z F,,2 A,, | D,,2 z F,,2 z A,,2 z F,,2 z | %6
 E,,2 z F,,2 z D,,2 z E,,2 z | F,,2 z A,,2 z C,2 G,, C,,2 z | F,,2 z C,2 z F,,2 F, E,2 D,- | %9
 D,3 G,2 A,- A,3 E,2 G,- | G,3 F,2 D,- D,3 E,2 F,- | F,3 A,2 G,- G,3 E,2 A,,- | %12
 A,,3 A,2 D,- D, z F, E,2 D,- | D,3 G,2 A,- A,3 E,2 G,- | G,3 F,2 D,- D,3 E,2 F,- | %15
 F,3 A,2 PC- C3 B,2 A,- | A,6 z2 C, F,2 E,- | E,2 C, G,2 F,- F,2 A, C2 B,- | %18
 B,2 D, ^F,2 G,- G,2 E, C2 D- | D2 D, G,2 D- D2 G,, D,2 G,- | G,2 A, G,=F,E,- E,2 D, C,2 F,- | %21
 F,2 C A,2 B,- B,2 F, ^F,2 G,- | G,2 D =B,2 C- C2 G, ^G,2 A,- | A,2 F, D2 E- E2 A, E,2 A,,- | %24
 A,,2 ^G,, A,,=B,,^C,- C,2 z A,,2 z | D,2 z =C,2 z =B,,2 z G,,2 z | %26
 C,2 G, _B,,2 C,, A,,2 z F,,2 z | G,,2 z =B,,2 z C,2 z ^G,,2 z | %28
 A,,3- A,,2 _B,, A,,G,,^F,,- F,,2 G,,- | G,,2 D, E,2 =F,,- F,,2 ^C, D,2 E,,- | %30
 E,,2 =B,, ^C,2 D,,- D,,2 A,, G,,2 A,,- | A,,2 B,,- B,,2 (=B,, B,,2) (C, C,2) C,, | D,,6 z3 z2 D, | %33
 D,,2 z F,,2 z A,,2 z F,,2 z | E,,2 z F,,2 z D,,2 z F,,2 A,, | D,,2 z F,,2 z A,,2 z ^C,2 z | %36
 E,,2 z A,,2 z F,2 z A,2 z | F,,2 z D,2 z B,2 z D2 z | G,,2 z E,2 z G,2 z E2 z | %39
 F2 F FFF E2 E2 E2 | G2 G GGG F2 F2 F2 | A2 A AAA G2 G2 F2 | F2 E2 ^C2 D2 z z EC | %43
 D2 z z E^C D2 z A,GA, | FA,E A,^CA, D2 z z3 | [A,,E,^C]2 z z3 [D,,A,,F,D]2 |] %46

